assets/icons/emote/plain.svg

<?xml version="1.0" encoding="UTF-8" standalone="no"?>
<svg viewBox="0 0 24 24" width="24" height="24" version="1.1" id="svg4" sodipodi:docname="plain.svg" inkscape:version="1.1 (ce6663b3b7, 2021-05-25)"
   xmlns:inkscape="http://www.inkscape.org/namespaces/inkscape"
   xmlns:sodipodi="http://sodipodi.sourceforge.net/DTD/sodipodi-0.dtd"
   xmlns="http://www.w3.org/2000/svg"
   xmlns:svg="http://www.w3.org/2000/svg"
   xmlns:rdf="http://www.w3.org/1999/02/22-rdf-syntax-ns#"
   xmlns:cc="http://creativecommons.org/ns#"
   xmlns:dc="http://purl.org/dc/elements/1.1/">
   <metadata id="metadata10">
      <rdf:RDF>
         <cc:Work rdf:about="">
            <dc:format>image/svg+xml</dc:format>
            <dc:type rdf:resource="http://purl.org/dc/dcmitype/StillImage" />
         </cc:Work>
      </rdf:RDF>
   </metadata>
   <defs id="defs8" />
   <sodipodi:namedview pagecolor="#ffffff" bordercolor="#666666" borderopacity="1" objecttolerance="10" gridtolerance="10" guidetolerance="10" inkscape:pageopacity="0" inkscape:pageshadow="2" inkscape:window-width="1920" inkscape:window-height="1016" id="namedview6" showgrid="true" inkscape:zoom="13.75" inkscape:cx="-11.090909" inkscape:cy="3.3818182" inkscape:window-x="0" inkscape:window-y="27" inkscape:window-maximized="1" inkscape:current-layer="svg4" inkscape:pagecheckerboard="0">
      <inkscape:grid type="xygrid" id="grid1420" />
   </sodipodi:namedview>
   <path style="display:inline;fill:#808080;fill-opacity:1;stroke:none;stroke-width:1" d="m 15.125025,7.6250152 c 0.697912,0 1.25,0.59115 1.25,1.2890625 v 1.2109373 c 0,0.697913 -0.552088,1.25 -1.25,1.25 -0.697912,0 -1.25,-0.552087 -1.25,-1.25 v -1.2109373 c 0,-0.6979125 0.552088,-1.2890625 1.25,-1.2890625 z" id="path985" />
   <path style="display:inline;fill:#808080;fill-opacity:1;stroke:none;stroke-width:1" d="m 8.8359375,7.605484 c 0.6979125,0 1.2890625,0.59115 1.2890625,1.2890625 v 1.2109375 c 0,0.697912 -0.59115,1.25 -1.2890625,1.25 -0.6979125,0 -1.25,-0.552088 -1.25,-1.25 v -1.2109375 c 0,-0.6979125 0.5520875,-1.2890625 1.25,-1.2890625 z" id="path983" />
   <path id="path993" style="fill:#808080;fill-opacity:1;fill-rule:evenodd;stroke:none;stroke-width:0.75;stroke-linecap:square;stroke-linejoin:round;stroke-opacity:1" d="m 11.953613,2.6250152 a 9.375,9.375 0 0 0 -9.328613,9.3749998 9.375,9.375 0 0 0 9.375,9.374998 9.375,9.375 0 0 0 9.375,-9.374998 9.375,9.375 0 0 0 -9.375,-9.3749998 9.375,9.375 0 0 0 -0.04639,0 z m 0.04639,1.25 a 8.125,8.125 0 0 1 8.125001,8.1249998 8.125,8.125 0 0 1 -8.125001,8.124998 8.125,8.125 0 0 1 -8.1249997,-8.124998 8.125,8.125 0 0 1 8.1249997,-8.1249998 z" />
   <rect style="fill:#808080;fill-rule:evenodd;stroke-width:1;stroke-linecap:square" id="rect1440" width="8.75" height="1.25" x="7.625" y="15.124987" ry="0.5" rx="0.5" />
</svg>

<svg width="24" height="24" xmlns="http://www.w3.org/2000/svg"><path style="display:inline;fill:gray;fill-opacity:1;stroke:none;stroke-width:1" d="M15.125 7.625c.698 0 1.25.591 1.25 1.29v1.21a1.24 1.24 0 0 1-1.25 1.25 1.24 1.24 0 0 1-1.25-1.25v-1.21c0-.699.552-1.29 1.25-1.29zm-6.289-.02c.698 0 1.289.592 1.289 1.29v1.21c0 .698-.591 1.25-1.29 1.25a1.24 1.24 0 0 1-1.25-1.25v-1.21c0-.698.553-1.29 1.25-1.29z"/><path style="fill:gray;fill-opacity:1;stroke:none;stroke-width:.75;stroke-linecap:square;stroke-linejoin:round;stroke-opacity:1" d="M11.954 2.625A9.375 9.375 0 0 0 2.625 12 9.375 9.375 0 0 0 12 21.375 9.375 9.375 0 0 0 21.375 12 9.375 9.375 0 0 0 12 2.625a9.375 9.375 0 0 0-.046 0zM12 3.875A8.125 8.125 0 0 1 20.125 12 8.125 8.125 0 0 1 12 20.125 8.125 8.125 0 0 1 3.875 12 8.125 8.125 0 0 1 12 3.875z"/><rect style="fill:gray;stroke-width:1;stroke-linecap:square" width="8.75" height="1.25" x="7.625" y="15.125" ry=".5" rx=".5"/></svg>
